X: 2163
Q: "Strathspey."
M: C
L: 1/16
K: D
uF2 |\
vD3vEuF3ud vAF3F3ud | vAF3F3ud vAF3F3uE |\
vD3vEuF3ud vAF3F3ud | vAF3 GFED E6 ::\
uA2 |\
vd3vguf3ue vdB3B3ud |
[1 d3gf3e dB3B3d | A3F GFED E6 :|\
[2 d3ef3g a3fd3A | Bcdc BAGF E6 |]


